X: 9425
T: Danny
R: reel
M: 4/4
K: Bminor
|:B2 FA BdcB|BAFA BEEE|E2 FA BAFA|Bedc BGGG|G2 BG G2 BG G2 BG|
F3 G FEDF|1 EA,A,A, CA,A,A,|A,B,B,D EDEF:|2 EAAA cAAA|ABBA BAdf||
|:g2 ba aged|de e2 d2 (3def|g2 ba aged|eaaa baaf|
|:g2 ba aged|de e2 d2 de|fded BAFA|BdcA B4:|

